modules/coreui-icons-free/icons/wc.svg

<!-- Generated by IcoMoon.io -->
<svg version="1.1" xmlns="http://www.w3.org/2000/svg" width="24" height="24" viewBox="0 0 24 24">
<title>wc</title>
<path d="M6.188 6.554c1.603 0 2.902-1.299 2.902-2.902s-1.299-2.902-2.902-2.902c-1.603 0-2.902 1.299-2.902 2.902v0c0.002 1.602 1.3 2.9 2.902 2.902h0zM6.188 2.25c0.774 0 1.402 0.628 1.402 1.402s-0.628 1.402-1.402 1.402c-0.774 0-1.402-0.628-1.402-1.402v0c0.001-0.774 0.628-1.401 1.402-1.402h0z"></path>
<path d="M8.25 7.125h-4.125c-1.242 0.001-2.249 1.008-2.25 2.25v7.125h1.5v6.75h5.625v-6.75h1.5v-7.125c-0.001-1.242-1.008-2.249-2.25-2.25h-0zM9 15h-1.5v6.75h-2.625v-6.75h-1.5v-5.625c0-0.414 0.336-0.75 0.75-0.75h4.125c0.414 0 0.75 0.336 0.75 0.75v0z"></path>
<path d="M17.348 6.554c1.603 0 2.902-1.299 2.902-2.902s-1.299-2.902-2.902-2.902c-1.603 0-2.902 1.299-2.902 2.902v0c0.002 1.602 1.3 2.9 2.902 2.902h0zM17.348 2.25c0.774 0 1.402 0.628 1.402 1.402s-0.628 1.402-1.402 1.402c-0.774 0-1.402-0.628-1.402-1.402v0c0.001-0.774 0.628-1.401 1.402-1.402h0z"></path>
<path d="M19.957 9.063c-0.404-1.138-1.472-1.938-2.727-1.938-1.23 0-2.281 0.769-2.696 1.853l-0.007 0.020-2.903 7.741v2.011h3v4.5h4.875v-4.5h3v-2.377zM21 17.25h-3v4.5h-1.875v-4.5h-3v-0.239l2.807-7.486c0.203-0.53 0.708-0.9 1.299-0.9 0.603 0 1.116 0.384 1.307 0.922l0.003 0.010 2.459 7.070z"></path>
</svg>

<svg xmlns="http://www.w3.org/2000/svg" width="24" height="24" viewBox="0 0 24 24"><path d="M6.188 6.554a2.902 2.902 0 10-2.902-2.902 2.906 2.906 0 002.902 2.902zm0-4.304a1.402 1.402 0 11-1.402 1.402A1.404 1.404 0 016.188 2.25zM8.25 7.125H4.125a2.252 2.252 0 00-2.25 2.25V16.5h1.5v6.75H9V16.5h1.5V9.375a2.252 2.252 0 00-2.25-2.25zM9 15H7.5v6.75H4.875V15h-1.5V9.375a.75.75 0 01.75-.75H8.25a.75.75 0 01.75.75zM17.348 6.554a2.902 2.902 0 10-2.902-2.902 2.906 2.906 0 002.902 2.902zm0-4.304a1.402 1.402 0 11-1.402 1.402 1.404 1.404 0 011.402-1.402zM19.957 9.063a2.886 2.886 0 00-5.423-.085l-.007.02-2.903 7.741v2.011h3v4.5h4.875v-4.5h3v-2.377zM21 17.25h-3v4.5h-1.875v-4.5h-3v-.239l2.807-7.486a1.386 1.386 0 012.606.022l.003.01L21 16.627z"/></svg>
